icon-themes/breeze_svg/cmd/lc_rect_rounded_unfilled.svg

<svg viewBox="0 0 24 24" xmlns="http://www.w3.org/2000/svg"><path d="m6 6c-1.1080001 0-2 .8919999-2 2v8c0 1.108.8919999 2 2 2h12c1.108 0 2-.892 2-2v-8c0-1.1080001-.892-2-2-2zm0 1h12c.554 0 1 .4459999 1 1v8c0 .554-.446 1-1 1h-12c-.5540001 0-1-.446-1-1v-8c0-.5540001.4459999-1 1-1z" fill="#4d4d4d"/></svg>

<svg xmlns="http://www.w3.org/2000/svg" viewBox="0 0 24 24">
 <path 
     style="fill:#4d4d4d" 
     d="M 6 6 C 4.8919999 6 4 6.8919999 4 8 L 4 16 C 4 17.108 4.8919999 18 6 18 L 18 18 C 19.108 18 20 17.108 20 16 L 20 8 C 20 6.8919999 19.108 6 18 6 L 6 6 z M 6 7 L 18 7 C 18.554 7 19 7.4459999 19 8 L 19 16 C 19 16.554 18.554 17 18 17 L 6 17 C 5.4459999 17 5 16.554 5 16 L 5 8 C 5 7.4459999 5.4459999 7 6 7 z "
     />
 </svg>
